X:97
T:97. Open-Tenth Hymn (4ths CW) — wide LH spread + block RH
T:LH 1-5-10 arpeggio under RH 1358 block — expansive voicing
C:Full 7-mode cycle
M:4/4
L:1/4
Q:1/4=76
%%score {V1 V2}
V:V1 clef=treble
V:V2 clef=bass
K:C
[V:V1] "C" [cegc']4 | "F" [fac'f']4 | "B°" [Bdfb]4 | "Em" [egbe']4 | "Am" [ac'e'a']4 | "Dm" [dfad']4 | "G" [gbd'g']4 | "C" [cegc']4 |]
[V:V2] "_8"C, G, E z | "_8"F, C A z | "_8"B, F d z | "_8"E, B, G z | "_8"A, E c z | "_8"D, A, F z | "_8"G, D B z | "_8"C, G, E z |]

